X:3466
T:Cotillion des Dames
M:6/8
K:G
D2G BGD|GBed2d|edc BdB|AcA GFE|D2G BGD|GBed2d|edc BdB|AcAG3:||AAA BAA|dAAf3|agf eee|gfe dfd|AAA BAA|dAAf3|agf eee|gfed3:||


